X:1
T:Title
%%score { ( 1 3 ) | 2 }
L:1/8
M:4/4
K:Ab
V:1 treble nm="Grand Piano"
V:3 treble 
V:2 bass 
V:1
 z4 z2[Q:1/4=88] [A,C][B,D] | [CE][DF][B,G][CA] [Ec][CA][DB][Ec] |[M:3/4] [Fd][Fc] [Fd][FB] [DF]2 | %3
[M:1/4] [DF][DF] |[M:4/4] GGGF EFED | C6 C[B,D] | [CE][DF][B,G][CA] [Ec][CA][DB][Ec] | %7
 [Fd][Fc][Fd][FB] F2 GF | EABc FFGG |[M:3/4] [CA]6 |[M:1/4] cc |[M:4/4] cBBG E2 Bc | %12
 [DB][CA]C[B,F] [CE]2 z G, | A2 AA [=DA][DF][DG][DA] | B6 z2 | [Ae][Af][Ae]c A2 Bc | %16
 [Fd][Fc][Fd][FB] F2 GF | EABc FFGG |[M:3/4] [CA]6 |] %19
V:2
 z4 z2 [A,,E,][A,,E,] | [A,,A,][A,,A,][A,,E,][A,,E,] [A,,A,][A,,A,][A,,A,][A,,A,] | %2
[M:3/4] [D,A,][D,A,] [D,A,][D,A,] [D,A,]2 |[M:1/4] [B,,B,][B,,B,] | %4
[M:4/4] [E,B,D][E,B,D][E,B,D][E,A,D] [E,G,D][E,A,D][E,A,C][E,G,B,] | [A,,A,]6 [A,,E,A,][A,,E,] | %6
 [A,,A,][A,,A,][A,,E,][A,,D,] [A,,A,][A,,A,][A,,A,][A,,A,] | %7
 [D,A,][D,A,][D,A,][D,A,] [D,A,D]2 [=D,A,_C][D,A,C] | %8
 [E,A,C][E,A,C][E,A,D][E,A,E] [E,A,D][E,A,D][E,B,D][E,B,D] |[M:3/4] [A,,A,]6 |[M:1/4] [A,E][A,E] | %11
[M:4/4] [E,G,E][E,G,D][E,G,D][E,B,D] [E,G,D]2 [E,G,D][E,G,E] | %12
 [A,,A,][A,,E,][A,,E,][A,,=D,] [A,,E,]2 [A,,A,]C, | %13
 [F,C]2 [F,A,F][F,CE] [B,,B,][B,,A,][B,,G,][B,,F,] | %14
 [E,G,E][E,G,][B,,F,][B,,A,] E,D,[C,A,][B,,B,] | [A,,C][A,,D][C,C][E,A,E] [A,C]2 [A,D][A,E] | %16
 [D,A,][D,A,][D,A,][D,A,] [D,A,D]2 [=D,A,_C][D,A,C] | %17
 [E,A,C][E,A,C][E,A,D][E,A,E] [E,A,D][E,A,D][E,B,D][E,B,D] |[M:3/4] [A,,A,]6 |] %19
V:3
 x8 | x8 |[M:3/4] x6 |[M:1/4] x2 |[M:4/4] x8 | x8 | x8 | x8 | x8 |[M:3/4] x6 |[M:1/4] x2 | %11
[M:4/4] x8 | z4 z2 [CE]2 | x8 | z E=DF [G,E]2 [Ec][Ed] | x8 | x8 | x8 |[M:3/4] x6 |] %19

